src/assets/icons/viewUsers.svg

<svg width="74" height="76" viewBox="0 0 74 76" fill="none" xmlns="http://www.w3.org/2000/svg">
<path d="M35.3173 0.601522C31.5645 0.852796 28.921 1.60662 26.8204 3.01218C25.593 3.83667 24.4365 5.25794 24.0038 6.4829C23.7914 7.06397 22.7607 11.2257 22.147 13.9426C21.8717 15.1754 21.4626 16.8715 21.3603 17.2013C21.2423 17.6096 21.4311 17.5547 19.1495 17.7824C16.9072 18.0101 14.9325 18.0651 8.84297 18.0651C2.32862 18.0651 2.28928 18.0729 1.46318 18.5126C0.936057 18.8032 0.432532 19.4157 0.18077 20.0753C0.00768313 20.5385 -0.0159196 20.7191 0.00768313 21.2924C0.0312858 21.897 0.0627561 22.0305 0.369591 22.6351C1.01473 23.9464 2.08472 24.6767 4.97999 25.8153C6.11292 26.255 6.7974 26.4906 8.33157 26.9696C11.0144 27.8019 15.0662 28.7128 18.6774 29.2939C19.5035 29.4195 20.2824 29.553 20.4162 29.5687L20.6601 29.608L20.7073 31.4375C20.7859 34.5628 21.0456 36.0233 21.9189 38.4025C23.3901 42.4072 26.3483 45.8308 29.8887 47.6133C31.3993 48.375 32.3041 48.6891 33.9877 49.0581C34.8925 49.2544 35.0971 49.2701 36.8515 49.2701C38.5981 49.2701 38.8105 49.2544 39.6917 49.0581C42.4375 48.4692 44.546 47.472 46.6939 45.7523C47.4019 45.1869 48.6214 43.9384 49.1171 43.271C49.2902 43.0354 49.5419 42.7135 49.6678 42.5721C49.7937 42.4229 49.9668 42.1402 50.0533 41.9439C50.1399 41.7398 50.3287 41.4414 50.4624 41.2686C50.604 41.0959 50.7457 40.8682 50.7771 40.7582C50.8086 40.6483 51.0053 40.2321 51.2177 39.8395C51.4301 39.439 51.674 38.8737 51.7684 38.5831C51.8628 38.2848 52.0123 37.8921 52.091 37.7037C52.3821 37.0598 52.7991 35.1046 52.9407 33.7147C53.0036 33.1258 53.1138 30.3382 53.0981 29.7179C53.0981 29.6629 53.3734 29.5844 53.7904 29.5294C56.5283 29.1525 60.47 28.3751 62.7358 27.747C63.3023 27.5978 63.8294 27.4564 63.916 27.4329C64.7814 27.2209 66.9214 26.5299 68.7545 25.8781C69.9268 25.4619 71.3272 24.8023 72.1218 24.2998C73.0974 23.6716 73.7583 22.7058 73.955 21.5986C74.2068 20.193 73.3807 18.7561 72.0196 18.2535C71.6498 18.12 71.1541 18.1043 64.0733 18.0572C59.9192 18.0258 56.1507 17.963 55.6944 17.9237C55.238 17.8766 54.3175 17.7824 53.6488 17.7196C52.98 17.6489 52.4214 17.5939 52.4214 17.5939C52.4136 17.5939 52.3821 17.4604 52.3506 17.2955C52.3034 17.0443 51.6583 14.2017 51.3279 12.8433C51.1312 12.0109 50.8401 10.7389 50.6984 10.1342C50.3916 8.76792 49.9432 7.00116 49.8094 6.60069C48.7158 3.43621 45.1282 1.29253 39.9592 0.711455C39.1882 0.625079 36.0726 0.546556 35.3173 0.601522ZM38.5431 5.03023C42.0599 5.27365 44.6089 6.34941 45.4272 7.94343C45.6317 8.33605 45.8442 9.23121 45.7576 9.31759C45.7261 9.349 45.3013 9.30188 44.8214 9.20765C43.1534 8.88571 42.0913 8.72081 41.7452 8.72081C41.2338 8.72081 40.7302 8.92497 40.3683 9.27833C39.912 9.7102 39.7075 10.1499 39.6602 10.7703C39.5737 11.9717 40.447 12.9689 41.7766 13.1966C42.052 13.2437 42.6893 13.3301 43.1849 13.3929C43.6806 13.4558 44.5696 13.5814 45.1518 13.6756C45.734 13.762 46.3713 13.8641 46.5601 13.8876L46.9141 13.9426L47.2131 15.1597C47.5121 16.3768 47.5593 16.7302 47.457 16.7302C47.4177 16.7302 46.8433 16.6202 46.1746 16.4946C45.5059 16.369 44.5696 16.2041 44.0897 16.1412C43.6176 16.0706 43.1692 15.9999 43.1062 15.9842C42.9253 15.9292 40.1244 15.623 39.0938 15.5523C37.9372 15.4659 36.0018 15.4659 34.8453 15.5523C33.7832 15.6308 30.8486 15.9371 30.6755 15.9842C30.6125 16.0078 30.1484 16.0784 29.6527 16.1412C29.157 16.2041 28.5906 16.2983 28.3939 16.3454C28.1972 16.3847 27.6229 16.4867 27.1115 16.5653L26.1831 16.7066L26.2303 16.4632C26.3404 15.9528 26.8125 14.0447 26.844 14.0133C26.899 13.9583 27.7173 13.8248 29.9281 13.5029C32.784 13.1024 33.0279 13.0317 33.5786 12.4742C34.6643 11.3906 34.3182 9.47463 32.9413 8.87786C32.3985 8.65014 31.8556 8.6894 29.4167 9.14484C28.3624 9.349 28.0005 9.37255 28.0005 9.25477C28.0005 9.0192 28.2365 8.18685 28.3939 7.87276C28.8187 7.00116 30.1326 6.09814 31.6589 5.627C33.4921 5.06163 35.9231 4.85747 38.5431 5.03023ZM41.4541 20.0595C42.5555 20.1773 43.5547 20.2873 43.6648 20.3108C43.7829 20.3344 44.3257 20.4208 44.8843 20.4993C46.1038 20.6799 47.9055 21.0097 48.3224 21.1275C48.4877 21.1746 48.7316 21.2845 48.8732 21.363C49.0384 21.4573 49.416 21.5358 49.9904 21.5986C50.4703 21.6457 51.1076 21.7164 51.4065 21.7556C52.2248 21.8734 54.8919 22.1404 56.0091 22.2268C57.559 22.3446 62.3661 22.5409 63.7744 22.5409C64.4824 22.5409 65.0568 22.5644 65.0568 22.6037C65.0568 22.6351 64.8915 22.7058 64.687 22.7529C64.4746 22.8079 64.0655 22.9256 63.7586 23.012C63.0191 23.2319 61.8153 23.5538 61.2803 23.6795C58.6526 24.2998 57.4567 24.5511 55.8517 24.818C53.4678 25.2107 52.8463 25.3049 49.2036 25.7525C45.7261 26.1843 40.1244 26.5456 36.8909 26.5456C34.4676 26.5456 29.3616 26.2786 27.0957 26.0352C24.8613 25.7996 22.5325 25.5248 21.7851 25.407C21.376 25.3442 20.6522 25.2342 20.1723 25.1714C19.7002 25.1007 19.2518 25.0301 19.181 25.0144C19.118 24.9908 18.6538 24.9044 18.1582 24.818C16.1834 24.4725 14.1614 24.0328 11.5966 23.3889C11.2504 23.3026 10.6997 23.1691 10.3771 23.0984C10.0546 23.0199 9.61399 22.8942 9.40943 22.8236C9.20487 22.7529 8.96885 22.6979 8.8823 22.6979C8.80363 22.6979 8.70922 22.6587 8.68561 22.6194C8.65414 22.5723 8.98458 22.5409 9.60612 22.533C10.1411 22.533 10.7154 22.5173 10.8885 22.5016C11.0616 22.4859 11.9664 22.4545 12.8948 22.4231C15.6878 22.3446 19.8104 22.0383 21.9425 21.7635C22.265 21.7164 22.9731 21.6457 23.516 21.5907C24.0589 21.5436 24.6332 21.4573 24.7984 21.3944C24.9558 21.3316 25.239 21.2295 25.4278 21.1589C25.892 20.9861 30.227 20.2716 31.5802 20.1538C31.8871 20.1224 32.5952 20.0517 33.1538 19.9889C34.7194 19.8083 34.8138 19.8083 37.2056 19.8318C38.8892 19.8554 39.9435 19.9104 41.4541 20.0595ZM26.6237 30.3461C28.0005 30.511 28.386 30.5424 30.5575 30.6759C35.7029 30.9821 37.9294 30.99 42.7522 30.6994C45.1911 30.5581 45.7733 30.511 47.4334 30.3147C48.5742 30.1812 48.4562 30.0555 48.4562 31.3747C48.4562 33.9424 47.9448 36.2981 46.9928 38.1827C45.5373 41.0488 42.9646 43.3731 40.1952 44.3232C39.2433 44.6451 38.3621 44.7865 37.001 44.8179C35.6084 44.8571 34.7194 44.7315 33.4685 44.3153C30.8328 43.4516 28.1657 41.0017 26.7102 38.112C25.7504 36.196 25.3963 34.5785 25.3491 31.9008L25.3177 30.2361H25.4986C25.6009 30.2361 26.1044 30.2833 26.6237 30.3461Z" fill="black" fill-opacity="0.7"/>
<path d="M25.2467 48.1787C24.9241 48.2337 24.5307 48.32 24.3813 48.3671C24.2318 48.4143 23.7204 48.5399 23.2405 48.6577C22.2491 48.8932 20.1878 49.4743 19.6607 49.6706C19.464 49.7413 19.0785 49.8826 18.7953 49.9847C18.5121 50.0789 18.0164 50.2753 17.6938 50.4166C17.3713 50.5501 17.0093 50.6993 16.8913 50.7464C16.7733 50.7857 16.2855 51.0291 15.8056 51.2882C12.635 52.9607 10.1252 55.1908 8.16619 58.0726C7.3165 59.3211 6.94672 59.9807 6.27011 61.4884C5.75085 62.6348 5.17652 64.6057 4.87755 66.2783C4.58645 67.9037 4.43697 72.2303 4.63365 73.2668C4.79887 74.1227 5.36534 74.9315 6.12849 75.3791L6.48253 75.5833H36.5367H66.5908L66.9291 75.4026C67.4562 75.12 67.9519 74.6174 68.2272 74.0913L68.479 73.6202L68.5026 71.2645C68.5341 68.8303 68.4554 67.4011 68.2351 66.2154C67.4326 61.8731 65.5444 58.2218 62.539 55.1987C61.9568 54.6097 61.233 53.9423 60.9261 53.6989C58.4085 51.7358 55.2929 50.181 51.7211 49.121C51.3356 49.0032 50.8006 48.8461 50.5409 48.7598C50.061 48.6106 49.4473 48.4535 48.5347 48.2415C47.7873 48.0688 47.0635 48.1316 46.6622 48.3986C46.3869 48.5713 46.2688 48.7598 45.9069 49.49C44.8684 51.6416 42.7206 53.5026 40.2816 54.382C37.2841 55.4656 33.6335 55.0416 31.0687 53.3141C29.6053 52.3326 28.1184 50.6129 27.725 49.4508C27.3316 48.2886 26.6235 47.9196 25.2467 48.1787ZM24.6566 53.2591C25.467 54.4919 27.0012 56.0153 28.315 56.8869C30.2111 58.1511 32.0049 58.8421 34.5304 59.2976C35.2778 59.431 37.4965 59.4703 38.4249 59.3761C41.2729 59.0698 44.0738 57.9548 46.0879 56.3451C46.8432 55.7405 48.3223 54.1779 48.8258 53.4476C48.9753 53.2277 49.109 53.0393 49.1169 53.0314C49.2034 52.9372 52.4842 54.0051 53.6486 54.5077C55.8358 55.4499 58.1961 57.0125 59.4313 58.3553C61.6657 60.7816 62.7121 62.6112 63.5224 65.5323C63.8293 66.6316 63.963 67.7231 64.0102 69.482L64.0574 71.2252H36.5839H9.11817V69.8982C9.11817 68.367 9.26765 67.0556 9.59809 65.6501C9.9128 64.323 10.0465 63.8912 10.314 63.3886C10.4321 63.153 10.5343 62.9175 10.5343 62.8547C10.5343 62.7918 10.676 62.517 10.8412 62.2422C11.0064 61.9595 11.2503 61.5119 11.384 61.2371C11.5178 60.9623 11.683 60.6874 11.7617 60.6246C11.8325 60.5618 11.9977 60.3576 12.1157 60.1692C12.5484 59.486 13.6971 58.2375 14.4681 57.6172C14.7907 57.3502 15.0739 57.1146 15.0975 57.0911C15.1211 57.0675 15.365 56.8712 15.6483 56.6435C16.6946 55.8268 18.5671 54.8139 20.062 54.2564C20.8723 53.958 23.0595 53.2748 23.4529 53.2042C23.6181 53.1728 23.8777 53.1021 24.043 53.0393C24.4442 52.8979 24.4127 52.8901 24.6566 53.2591Z" fill="black" fill-opacity="0.7"/>
</svg>

<svg xmlns="http://www.w3.org/2000/svg" width="74" height="76" fill="none"><path fill="#000" fill-opacity=".7" d="M35.317.602c-3.753.25-6.396 1.005-8.497 2.41-1.227.825-2.384 2.246-2.816 3.47-.213.582-1.243 4.744-1.857 7.46-.275 1.233-.684 2.93-.787 3.26-.118.408.071.353-2.21.58-2.243.228-4.217.283-10.307.283-6.514 0-6.554.008-7.38.448-.527.29-1.03.903-1.282 1.562-.173.463-.197.644-.173 1.217.023.605.055.738.362 1.343.645 1.311 1.715 2.042 4.61 3.18 1.133.44 1.817.676 3.352 1.155 2.682.832 6.734 1.743 10.345 2.324.826.125 1.605.259 1.74.275l.243.039.047 1.83c.079 3.125.339 4.585 1.212 6.965 1.471 4.004 4.43 7.428 7.97 9.21 1.51.762 2.415 1.076 4.099 1.445.904.196 1.11.212 2.864.212 1.746 0 1.959-.016 2.84-.212 2.745-.589 4.854-1.586 7.002-3.306.708-.565 1.927-1.814 2.423-2.481.173-.236.425-.557.55-.699a3.12 3.12 0 0 0 .386-.628c.087-.204.276-.503.41-.675.141-.173.283-.4.314-.51.032-.11.228-.527.44-.92.213-.4.457-.965.551-1.256.095-.298.244-.69.323-.88.291-.643.708-2.598.85-3.988.063-.59.173-3.377.157-3.997 0-.055.275-.134.692-.189 2.738-.377 6.68-1.154 8.946-1.782l1.18-.314c.865-.212 3.005-.903 4.838-1.555 1.173-.416 2.573-1.076 3.368-1.578.975-.628 1.636-1.594 1.833-2.701.252-1.406-.574-2.843-1.935-3.346-.37-.133-.866-.149-7.947-.196-4.154-.031-7.922-.094-8.379-.133-.456-.047-1.377-.142-2.045-.204-.669-.071-1.228-.126-1.228-.126-.007 0-.039-.134-.07-.299-.048-.25-.693-3.093-1.023-4.452-.197-.832-.488-2.104-.63-2.709-.306-1.366-.755-3.133-.889-3.533-1.093-3.165-4.68-5.308-9.85-5.89-.77-.086-3.886-.164-4.642-.11Zm3.226 4.428c3.517.244 6.066 1.32 6.884 2.913.205.393.417 1.288.33 1.375-.03.031-.456-.016-.936-.11-1.668-.322-2.73-.487-3.076-.487a1.99 1.99 0 0 0-1.377.557c-.456.432-.66.872-.708 1.492-.086 1.202.787 2.199 2.117 2.427.275.047.912.133 1.408.196a70.4 70.4 0 0 1 1.967.283c.582.086 1.22.188 1.408.212l.354.055.3 1.217c.298 1.217.345 1.57.243 1.57-.04 0-.614-.11-1.282-.235a49.015 49.015 0 0 0-2.085-.354c-.472-.07-.92-.141-.984-.157-.18-.055-2.982-.361-4.012-.432a34.85 34.85 0 0 0-4.249 0c-1.062.079-3.996.385-4.17.432-.063.024-.527.094-1.022.157-.496.063-1.062.157-1.26.204-.196.04-.77.142-1.282.22l-.928.142.047-.244c.11-.51.582-2.418.614-2.45.055-.055.873-.188 3.084-.51 2.856-.4 3.1-.471 3.65-1.029 1.086-1.083.74-3-.637-3.596-.543-.228-1.085-.189-3.524.267-1.055.204-1.417.228-1.417.11 0-.236.236-1.068.394-1.382.425-.872 1.739-1.775 3.265-2.246 1.833-.565 4.264-.77 6.884-.597Zm2.911 15.03c1.102.117 2.1.227 2.21.25.119.024.662.11 1.22.19 1.22.18 3.022.51 3.438.628.166.047.41.157.551.235.165.094.543.173 1.117.236.48.047 1.118.117 1.416.157.819.117 3.486.384 4.603.47 1.55.119 6.357.315 7.765.315.708 0 1.283.023 1.283.063 0 .031-.166.102-.37.149-.212.055-.621.173-.928.259-.74.22-1.944.542-2.479.668-2.627.62-3.823.871-5.428 1.138-2.384.393-3.006.487-6.648.934-3.478.432-9.08.794-12.313.794-2.423 0-7.53-.267-9.795-.51-2.235-.236-4.564-.511-5.31-.629a86.442 86.442 0 0 0-1.614-.236c-.472-.07-.92-.14-.991-.157-.063-.023-.527-.11-1.023-.196-1.975-.346-3.997-.785-6.561-1.43-.347-.085-.897-.219-1.22-.29a13.604 13.604 0 0 1-.968-.274c-.204-.071-.44-.126-.527-.126-.078 0-.173-.04-.196-.079-.032-.047.299-.078.92-.086.535 0 1.11-.016 1.283-.031a89.357 89.357 0 0 1 2.006-.079c2.793-.078 6.915-.385 9.047-.66.323-.047 1.031-.117 1.574-.172.543-.047 1.117-.134 1.282-.197.158-.062.441-.164.63-.235.464-.173 4.799-.887 6.152-1.005.307-.032 1.015-.102 1.574-.165 1.565-.18 1.66-.18 4.052-.157 1.683.023 2.737.078 4.248.227Zm-14.83 10.286c1.377.165 1.762.196 3.934.33 5.145.306 7.371.314 12.194.023 2.44-.14 3.021-.188 4.681-.384 1.141-.134 1.023-.26 1.023 1.06 0 2.567-.511 4.923-1.463 6.808-1.456 2.866-4.028 5.19-6.798 6.14-.952.322-1.833.463-3.194.495-1.393.04-2.282-.087-3.532-.503-2.636-.863-5.303-3.313-6.759-6.203-.96-1.916-1.314-3.534-1.36-6.211l-.032-1.665h.18c.103 0 .606.047 1.126.11Z"/><path fill="#000" fill-opacity=".7" d="M25.247 48.179a8.795 8.795 0 0 0-.866.188c-.15.047-.66.173-1.14.29-.992.236-3.053.817-3.58 1.014-.197.07-.583.212-.866.314-.283.094-.779.29-1.101.432l-.803.33c-.118.039-.605.282-1.085.541-3.171 1.673-5.68 3.903-7.64 6.785-.85 1.248-1.22 1.908-1.896 3.415-.52 1.147-1.093 3.118-1.392 4.79-.292 1.626-.441 5.952-.244 6.989a3.219 3.219 0 0 0 1.494 2.112l.355.204H66.59l.338-.18a3.306 3.306 0 0 0 1.298-1.312l.252-.47.024-2.356c.031-2.435-.048-3.864-.268-5.05-.802-4.342-2.69-7.993-5.696-11.016-.582-.59-1.306-1.257-1.613-1.5-2.518-1.963-5.633-3.518-9.205-4.578-.385-.118-.92-.275-1.18-.361-.48-.15-1.094-.306-2.006-.518-.748-.173-1.471-.11-1.873.157-.275.172-.393.36-.755 1.091-1.039 2.152-3.186 4.013-5.625 4.892-2.998 1.084-6.648.66-9.213-1.068-1.464-.981-2.95-2.701-3.344-3.863-.393-1.162-1.102-1.531-2.478-1.272Zm-.59 5.08c.81 1.233 2.344 2.756 3.658 3.628 1.896 1.264 3.69 1.955 6.215 2.41.748.134 2.966.173 3.895.08 2.848-.307 5.649-1.422 7.663-3.032.755-.605 2.234-2.167 2.738-2.897.15-.22.283-.409.29-.417.087-.094 3.368.974 4.533 1.477 2.187.942 4.547 2.505 5.782 3.847 2.235 2.427 3.281 4.256 4.091 7.177.307 1.1.441 2.191.488 3.95l.047 1.743H9.118v-1.327c0-1.531.15-2.842.48-4.248.315-1.327.448-1.759.716-2.261.118-.236.22-.472.22-.534 0-.063.142-.338.307-.613.165-.282.41-.73.543-1.005.134-.275.299-.55.378-.612.07-.063.236-.267.354-.456.432-.683 1.581-1.931 2.352-2.552.323-.267.606-.502.63-.526.023-.023.267-.22.55-.447 1.047-.817 2.92-1.83 4.414-2.388.81-.298 2.997-.981 3.39-1.052.166-.031.426-.102.591-.165.401-.141.37-.149.614.22Z"/></svg>
